web/ui/src/components/theme/workflow/svgs/zoom-center.svg

<svg height="24" viewBox="0 0 24 24" width="24" xmlns="http://www.w3.org/2000/svg"><g fill="none"><path d="m0 0h24v24h-24z" fill="#000" opacity="0"/><path d="m21.7331769 11.2461431h-1.9561617c-.3531606-3.72088521-3.3138092-6.6815339-7.0346945-7.03469444v-1.96529956c0-.41302397-.334813-.74783698-.747837-.74783698-.4130239 0-.7478369.33481301-.7478369.74783698v1.96529953c-3.72088528.35316057-6.68153398 3.31380924-7.03469452 7.03469447h-1.96467595c-.41302397 0-.74783698.334813-.74783698.747837 0 .4130239.33481301.747837.74783698.747837h1.96467595c.35316056 3.7208852 3.31380924 6.6815339 7.03469452 7.0346944v1.9675061c0 .4130239.334813.7478369.7478369.7478369.413024 0 .747837-.334813.747837-.7478369v-1.9675061c3.7208852-.3531605 6.6815339-3.3138092 7.0346945-7.0346944h1.9561617c.413024 0 .747837-.3348131.747837-.747837 0-.413024-.334813-.747837-.747837-.747837zm-9.7386931 7.3424299c-3.6420987 0-6.59459293-2.9524942-6.59459293-6.5945929 0-3.64209869 2.95249421-6.5945929 6.59459293-6.5945929 3.6420986 0 6.5945928 2.95249421 6.5945928 6.5945929 0 3.6420987-2.9525182 6.5945929-6.5945928 6.5945929zm-1.6316378-6.5945929c0 .9011286.7305091 1.6316377 1.6316378 1.6316377.9011286 0 1.6316377-.7305091 1.6316377-1.6316377 0-.9011287-.7305091-1.6316378-1.6316377-1.6316378-.9011287 0-1.6316378.7305091-1.6316378 1.6316378z" fill="#6b7b8d"/></g></svg>

<?xml version="1.0" encoding="UTF-8"?>
<svg width="24px" height="24px" viewBox="0 0 24 24" version="1.1" xmlns="http://www.w3.org/2000/svg" xmlns:xlink="http://www.w3.org/1999/xlink">
    <title>定位</title>
    <g id="页面-1" stroke="none" stroke-width="1" fill="none" fill-rule="evenodd">
        <g id="建木CI-图形编辑器-节点参数配置（先选版本）备份-2" transform="translate(-1425.000000, -20.000000)" fill-rule="nonzero">
            <g id="定位" transform="translate(1425.000000, 20.000000)">
                <rect id="矩形" fill="#000000" opacity="0" x="0" y="0" width="24" height="24"></rect>
                <path d="M21.7331769,11.2461431 L19.7770152,11.2461431 C19.4238546,7.52525789 16.463206,4.5646092 12.7423207,4.21144866 L12.7423207,2.2461491 C12.7423207,1.83312513 12.4075077,1.49831212 11.9944837,1.49831212 C11.5814598,1.49831212 11.2466468,1.83312513 11.2466468,2.2461491 L11.2466468,4.21144863 C7.52576152,4.5646092 4.56511282,7.52525787 4.21195228,11.2461431 L2.24727633,11.2461431 C1.83425236,11.2461431 1.49943935,11.5809561 1.49943935,11.9939801 C1.49943935,12.407004 1.83425236,12.7418171 2.24727633,12.7418171 L4.21195228,12.7418171 C4.56511284,16.4627023 7.52576152,19.423351 11.2466468,19.7765115 L11.2466468,21.7440176 C11.2466468,22.1570415 11.5814598,22.4918545 11.9944837,22.4918545 C12.4075077,22.4918545 12.7423207,22.1570415 12.7423207,21.7440176 L12.7423207,19.7765115 C16.4632059,19.423351 19.4238546,16.4627023 19.7770152,12.7418171 L21.7331769,12.7418171 C22.1462009,12.7418171 22.4810139,12.407004 22.4810139,11.9939801 C22.4810139,11.5809561 22.1462009,11.2461431 21.7331769,11.2461431 Z M11.9944838,18.588573 C8.3523851,18.588573 5.39989087,15.6360788 5.39989087,11.9939801 C5.39989087,8.35188141 8.35238508,5.3993872 11.9944838,5.3993872 C15.6365824,5.3993872 18.5890766,8.35188141 18.5890766,11.9939801 C18.5890766,15.6360788 15.6365584,18.588573 11.9944838,18.588573 Z M10.362846,11.9939801 C10.362846,12.8951087 11.0933551,13.6256178 11.9944838,13.6256178 C12.8956124,13.6256178 13.6261215,12.8951087 13.6261215,11.9939801 C13.6261215,11.0928514 12.8956124,10.3623423 11.9944838,10.3623423 C11.0933551,10.3623423 10.362846,11.0928514 10.362846,11.9939801 L10.362846,11.9939801 Z" id="形状" fill="#6B7B8D"></path>
            </g>
        </g>
    </g>
</svg>
